app/component-library/components/Icons/Icon/assets/security-cross.svg

<svg width="24" height="24" viewBox="0 0 24 24" fill="none" xmlns="http://www.w3.org/2000/svg">
<path d="M18.8206 4.11984L13.3206 2.05984C12.7506 1.84984 11.8206 1.84984 11.2506 2.05984L5.75057 4.11984C4.69057 4.51984 3.83057 5.75984 3.83057 6.88984V14.9898C3.83057 15.7998 4.36057 16.8698 5.01057 17.3498L10.5106 21.4598C11.4806 22.1898 13.0706 22.1898 14.0406 21.4598L19.5406 17.3498C20.1906 16.8598 20.7206 15.7998 20.7206 14.9898V6.88984C20.7306 5.75984 19.8706 4.51984 18.8206 4.11984ZM14.9606 13.9698C14.8106 14.1198 14.6206 14.1898 14.4306 14.1898C14.2406 14.1898 14.0506 14.1198 13.9006 13.9698L12.3106 12.3798L10.6706 14.0198C10.5206 14.1698 10.3306 14.2398 10.1406 14.2398C9.95057 14.2398 9.76057 14.1698 9.61057 14.0198C9.32057 13.7298 9.32057 13.2498 9.61057 12.9598L11.2506 11.3198L9.65057 9.71984C9.36057 9.42984 9.36057 8.94984 9.65057 8.65984C9.94057 8.36984 10.4206 8.36984 10.7106 8.65984L12.3006 10.2498L13.8506 8.69984C14.1406 8.40984 14.6206 8.40984 14.9106 8.69984C15.2006 8.98984 15.2006 9.46984 14.9106 9.75984L13.3606 11.3098L14.9506 12.8998C15.2506 13.1998 15.2506 13.6698 14.9606 13.9698Z" fill="currentColor"/>
</svg>

<svg xmlns="http://www.w3.org/2000/svg" width="24" height="24" viewBox="0 0 24 24" fill="none"><path fill="currentColor" d="m18.82 4.12-5.5-2.06c-.57-.21-1.5-.21-2.07 0l-5.5 2.06c-1.06.4-1.92 1.64-1.92 2.77v8.1c0 .81.53 1.88 1.18 2.36l5.5 4.11c.97.73 2.56.73 3.53 0l5.5-4.11c.65-.49 1.18-1.55 1.18-2.36v-8.1c.01-1.13-.85-2.37-1.9-2.77Zm-3.86 9.85c-.15.15-.34.22-.53.22s-.38-.07-.53-.22l-1.59-1.59-1.64 1.64c-.15.15-.34.22-.53.22s-.38-.07-.53-.22a.754.754 0 0 1 0-1.06l1.64-1.64-1.6-1.6a.754.754 0 0 1 0-1.06c.29-.29.77-.29 1.06 0l1.59 1.59 1.55-1.55c.29-.29.77-.29 1.06 0 .29.29.29.77 0 1.06l-1.55 1.55 1.59 1.59c.3.3.3.77.01 1.07Z"/></svg>
